X:1
T: the Cameronian
M: C|
L:1/8
Q:240
R:reel
K:D
A2 FA DAFA | GE~E2  GBdB | A2 FA DAFA | GBAG FDDB |
AF~F2  DFAF | GE~E2  GBdB | AD (3FED ADFD | GBAG FDDB :|
|:Ad{e}dc ~d3  A | (3Bcd ef {a}gfed | (3cBA eA fAeA | (3Bcd ef {a}gfeg |
faeg faeg | fdec defg | afge fdec |1 {e}dBAG FDDB :|2 {e}dBAG FDD2 ||
